src/assets/icon_course_e.svg

<svg fill="none" height="80" viewBox="0 0 80 80" width="80" xmlns="http://www.w3.org/2000/svg" xmlns:xlink="http://www.w3.org/1999/xlink"><clipPath id="a"><path d="m0 0h80v80h-80z"/></clipPath><g clip-path="url(#a)" fill="#000"><path d="m23.2432 45.683c2.2482 0 4.4213-.1453 6.4776-.4156v-22.5396c-2.0561-.2701-4.2294-.4153-6.4776-.4153-12.8369 0-23.2432 4.7197-23.2432 10.542v2.2863c0 5.822 10.4063 10.5422 23.2432 10.5422z"/><path d="m23.2432 57.4523c2.2482 0 4.4213-.1453 6.4776-.4152v-6.6067c-2.0567.2701-4.2288.4173-6.4776.4173-11.2052 0-20.55755-3.5964-22.754357-8.3829-.319919.6973-.488843 1.4192-.488843 2.1592v2.2863c0 5.8222 10.4063 10.542 23.2432 10.542z"/><path d="m29.7208 62.7137v-.5136c-2.0567.2702-4.2288.4174-6.4776.4174-11.2052 0-20.55755-3.5964-22.754357-8.3829-.319919.697-.488843 1.4189-.488843 2.159v2.2862c0 5.8225 10.4063 10.5422 23.2432 10.5422 2.5671 0 5.0362-.1892 7.3452-.5378-.5723-1.1707-.8676-2.4054-.8676-3.6845z"/><path d="m56.7568 4.45801c-12.8368 0-23.2431 4.71971-23.2431 10.54199v2.2863c0 5.8223 10.4063 10.542 23.2431 10.542 12.8367 0 23.2432-4.7197 23.2432-10.542v-2.2863c0-5.82228-10.4065-10.54199-23.2432-10.54199z"/><path d="m56.7568 32.9932c-11.2051 0-20.5575-3.5962-22.7543-8.3828-.3199.697-.4888 1.4189-.4888 2.1591v2.2863c0 5.8223 10.4063 10.542 23.2431 10.542 12.8367 0 23.2432-4.7197 23.2432-10.542v-2.2863c0-.7402-.1689-1.4621-.4888-2.1591-2.1968 4.7866-11.5492 8.3828-22.7544 8.3828z"/><path d="m56.7568 44.7629c-11.2051 0-20.5575-3.5965-22.7543-8.3829-.3199.697-.4888 1.4189-.4888 2.1592v2.2862c0 5.8225 10.4063 10.5422 23.2431 10.5422 12.8367 0 23.2432-4.7197 23.2432-10.5422v-2.2862c0-.7403-.1689-1.4622-.4888-2.1592-2.1968 4.7866-11.5492 8.3829-22.7544 8.3829z"/><path d="m56.7568 57.1679c-11.2051 0-20.5575-3.5964-22.7543-8.3829-.3199.6972-.4888 1.419-.4888 2.159v2.2864c0 5.8223 10.4063 10.542 23.2431 10.542 12.8367 0 23.2432-4.7197 23.2432-10.542v-2.2864c0-.74-.1689-1.4622-.4888-2.159-2.1968 4.7863-11.5492 8.3829-22.7544 8.3829z"/><path d="m56.7568 68.9373c-11.2051 0-20.5575-3.5962-22.7543-8.3827-.3199.6972-.4888 1.4194-.4888 2.159v2.2862c0 5.8223 10.4063 10.5421 23.2431 10.5421 12.8367 0 23.2432-4.7198 23.2432-10.5421v-2.2864c0-.74-.1689-1.4621-.4888-2.159-2.1968 4.7865-11.5492 8.3829-22.7544 8.3829z"/></g></svg>

<svg width="80" height="80" viewBox="0 0 80 80" fill="none" xmlns="http://www.w3.org/2000/svg">
<g clip-path="url(#clip0_366_571)">
<path d="M23.2432 45.683C25.4914 45.683 27.6645 45.5377 29.7208 45.2674V22.7278C27.6647 22.4577 25.4914 22.3125 23.2432 22.3125C10.4063 22.3125 0 27.0322 0 32.8545V35.1408C0 40.9628 10.4063 45.683 23.2432 45.683Z" fill="black"/>
<path d="M23.2432 57.4523C25.4914 57.4523 27.6645 57.307 29.7208 57.0371V50.4304C27.6641 50.7005 25.492 50.8477 23.2432 50.8477C12.038 50.8477 2.68565 47.2513 0.488843 42.4648C0.168924 43.1621 0 43.884 0 44.624V46.9103C0 52.7325 10.4063 57.4523 23.2432 57.4523Z" fill="black"/>
<path d="M29.7208 62.7137V62.2001C27.6641 62.4703 25.492 62.6175 23.2432 62.6175C12.038 62.6175 2.68565 59.0211 0.488843 54.2346C0.168924 54.9316 0 55.6535 0 56.3936V58.6798C0 64.5023 10.4063 69.222 23.2432 69.222C25.8103 69.222 28.2794 69.0328 30.5884 68.6842C30.0161 67.5135 29.7208 66.2788 29.7208 64.9997V62.7137Z" fill="black"/>
<path d="M56.7568 4.45801C43.92 4.45801 33.5137 9.17772 33.5137 15V17.2863C33.5137 23.1086 43.92 27.8283 56.7568 27.8283C69.5935 27.8283 80 23.1086 80 17.2863V15C80 9.17772 69.5935 4.45801 56.7568 4.45801Z" fill="black"/>
<path d="M56.7568 32.9932C45.5517 32.9932 36.1993 29.397 34.0025 24.6104C33.6826 25.3074 33.5137 26.0293 33.5137 26.7695V29.0558C33.5137 34.8781 43.92 39.5978 56.7568 39.5978C69.5935 39.5978 80 34.8781 80 29.0558V26.7695C80 26.0293 79.8311 25.3074 79.5112 24.6104C77.3144 29.397 67.962 32.9932 56.7568 32.9932Z" fill="black"/>
<path d="M56.7568 44.7629C45.5517 44.7629 36.1993 41.1664 34.0025 36.38C33.6826 37.077 33.5137 37.7989 33.5137 38.5392V40.8254C33.5137 46.6479 43.92 51.3676 56.7568 51.3676C69.5935 51.3676 80 46.6479 80 40.8254V38.5392C80 37.7989 79.8311 37.077 79.5112 36.38C77.3144 41.1666 67.962 44.7629 56.7568 44.7629Z" fill="black"/>
<path d="M56.7568 57.1679C45.5517 57.1679 36.1993 53.5715 34.0025 48.785C33.6826 49.4822 33.5137 50.204 33.5137 50.944V53.2304C33.5137 59.0527 43.92 63.7724 56.7568 63.7724C69.5935 63.7724 80 59.0527 80 53.2304V50.944C80 50.204 79.8311 49.4818 79.5112 48.785C77.3144 53.5713 67.962 57.1679 56.7568 57.1679Z" fill="black"/>
<path d="M56.7568 68.9373C45.5517 68.9373 36.1993 65.3411 34.0025 60.5546C33.6826 61.2518 33.5137 61.974 33.5137 62.7136V64.9998C33.5137 70.8221 43.92 75.5419 56.7568 75.5419C69.5935 75.5419 80 70.8221 80 64.9998V62.7134C80 61.9734 79.8311 61.2513 79.5112 60.5544C77.3144 65.3409 67.962 68.9373 56.7568 68.9373Z" fill="black"/>
</g>
<defs>
<clipPath id="clip0_366_571">
<rect width="80" height="80" fill="white"/>
</clipPath>
</defs>
</svg>
